; generated by Slic3r 1.2.9 on 2017-02-12 at 20:39:13

; external perimeters extrusion width = 0.35mm
; perimeters extrusion width = 0.52mm
; infill extrusion width = 0.52mm
; solid infill extrusion width = 0.20mm
; top infill extrusion width = 0.20mm
; support material extrusion width = 0.35mm

M107 ; disable fan
M190 S55 ; set bed temperature
M104 S190 ; set temperature
G28 X0 Y0; home XY axes
G1 X100; move X to right side for weight balancing
G28 Z0; home Z axis
M109 S190 ; wait for temperature to be reached
G21 ; set units to millimeters
G90 ; use absolute coordinates
M82 ; use absolute distances for extrusion
G92 E0 ; reset extrusion distance
G1 E-5.00000 F1800.00000 ; retract
G92 E0 ; reset extrusion distance
G1 Z0.100 F7800.000 ; move to next layer (0)
G1 X54.435 Y58.874 F7800.000 ; move to first brim point
G1 E5.00000 F1800.00000 ; unretract
M204 S500 ; adjust acceleration
G1 X54.886 Y58.477 E5.00177 F2400.000 ; brim
G1 X55.435 Y58.046 E5.00382 ; brim
G1 X56.093 Y57.599 E5.00615 ; brim
G1 X56.609 Y57.294 E5.00792 ; brim
G1 X57.229 Y56.975 E5.00996 ; brim
G1 X57.957 Y56.660 E5.01230 ; brim
G1 X58.613 Y56.427 E5.01434 ; brim
G1 X59.192 Y56.258 E5.01612 ; brim
G1 X59.970 Y56.085 E5.01846 ; brim
G1 X60.561 Y55.991 E5.02022 ; brim
G1 X61.253 Y55.923 E5.02226 ; brim
G1 X62.097 Y55.899 E5.02474 ; brim
G1 X62.743 Y55.923 E5.02664 F2400.000 ; brim
G1 X63.343 Y55.979 E5.02841 ; brim
G1 X64.127 Y56.103 E5.03074 ; brim
G1 X64.811 Y56.259 E5.03281 ; brim
G1 X65.475 Y56.456 E5.03484 ; brim
G1 X66.042 Y56.659 E5.03661 ; brim
G1 X66.683 Y56.934 E5.03866 ; brim
G1 X67.390 Y57.294 E5.04099 ; brim
G1 X68.031 Y57.680 E5.04319 ; brim
G1 X68.566 Y58.047 E5.04510 ; brim
G1 X69.040 Y58.415 E5.04686 ; brim
G1 X69.636 Y58.940 E5.04920 ; brim
G1 X70.060 Y59.364 E5.05096 ; brim
G1 X70.491 Y59.849 E5.05286 ; brim
G1 X70.953 Y60.434 E5.05506 ; brim
G1 X71.400 Y61.092 E5.05739 ; brim
G1 X71.753 Y61.695 E5.05945 ; brim
G1 X72.025 Y62.229 E5.06121 ; brim
G1 X72.304 Y62.866 E5.06325 ; brim
G1 X72.574 Y63.616 E5.06559 ; brim
G1 X72.741 Y64.191 E5.06735 ; brim
G1 X72.885 Y64.780 E5.06914 ; brim
G1 X73.021 Y65.657 E5.07174 ; brim
G1 X73.083 Y66.352 E5.07379 ; brim
G1 X73.102 Y66.952 E5.07556 ; brim
G1 X73.083 Y67.648 E5.07760 ; brim
G1 X73.009 Y68.440 E5.07994 ; brim
G1 X72.885 Y69.220 E5.08226 ; brim
G1 X72.741 Y69.808 E5.08404 ; brim
G1 X72.573 Y70.387 E5.08581 ; brim
G1 X72.305 Y71.133 E5.08814 ; brim
G1 X72.066 Y71.684 E5.08991 ; brim
G1 X71.752 Y72.307 E5.09196 ; brim
G1 X71.348 Y72.990 E5.09429 ; brim
G1 X70.953 Y73.565 E5.09634 ; brim
G1 X70.586 Y74.039 E5.09810 ; brim
G1 X70.060 Y74.636 E5.10044 ; brim
G1 X69.565 Y75.126 E5.10249 ; brim
G1 X69.114 Y75.524 E5.10425 ; brim
G1 X68.565 Y75.953 E5.10630 ; brim
G1 X67.907 Y76.401 E5.10864 ; brim
G1 X67.391 Y76.706 E5.11040 ; brim
G1 X66.771 Y77.025 E5.11245 ; brim
G1 X66.042 Y77.340 E5.11479 ; brim
G1 X65.384 Y77.574 E5.11684 ; brim
G1 X64.808 Y77.741 E5.11860 ; brim
G1 X64.128 Y77.896 E5.12065 ; brim
G1 X63.343 Y78.021 E5.12299 ; brim
G1 X62.745 Y78.077 E5.12475 ; brim
G1 X62.050 Y78.102 E5.12680 ; brim
G1 X61.351 Y78.083 E5.12885 ; brim
G1 X60.560 Y78.009 E5.13119 ; brim
G1 X59.967 Y77.915 E5.13295 ; brim
G1 X59.286 Y77.766 E5.13500 ; brim
G1 X58.522 Y77.544 E5.13734 ; brim
G1 X57.958 Y77.340 E5.13910 ; brim
G1 X57.317 Y77.066 E5.14115 ; brim
G1 X56.610 Y76.706 E5.14348 ; brim
G1 X55.969 Y76.320 E5.14568 ; brim
G1 X55.434 Y75.953 E5.14759 ; brim
G1 X54.961 Y75.586 E5.14935 ; brim
G1 X54.364 Y75.060 E5.15168 ; brim
G1 X53.940 Y74.636 E5.15345 ; brim
G1 X53.477 Y74.115 E5.15549 ; brim
G1 X52.990 Y73.486 E5.15783 ; brim
G1 X52.600 Y72.908 E5.15988 ; brim
G1 X52.294 Y72.390 E5.16165 ; brim
G1 X51.976 Y71.772 E5.16369 ; brim
G1 X51.696 Y71.133 E5.16574 ; brim
G1 X51.426 Y70.384 E5.16808 ; brim
G1 X51.130 Y69.316 E5.17134 ; brim
G1 X50.992 Y68.442 E5.17394 ; brim
G1 X50.917 Y67.648 E5.17628 ; brim
G1 X50.898 Y67.048 E5.17805 ; brim
G1 X50.917 Y66.351 E5.18010 ; brim
G1 X50.991 Y65.560 E5.18243 ; brim
G1 X51.115 Y64.780 E5.18475 ; brim
G1 X51.258 Y64.193 E5.18653 ; brim
G1 X51.456 Y63.523 E5.18858 ; brim
G1 X51.695 Y62.868 E5.19063 ; brim
G1 X51.934 Y62.317 E5.19239 ; brim
G1 X52.247 Y61.695 E5.19444 ; brim
G1 X52.652 Y61.010 E5.19678 ; brim
G1 X53.046 Y60.435 E5.19883 ; brim
G1 X53.477 Y59.886 E5.20088 ; brim
G1 X53.874 Y59.435 E5.20264 ; brim
G1 X54.397 Y58.910 E5.20482 ; brim
G1 X54.488 Y58.932 F7800.000 ; move to first brim point
G1 X54.937 Y58.536 E5.20658 F2400.000 ; brim
G1 X55.482 Y58.109 E5.20862 ; brim
G1 X56.134 Y57.666 E5.21093 ; brim
G1 X56.648 Y57.362 E5.21269 ; brim
G1 X57.263 Y57.046 E5.21472 ; brim
G1 X57.984 Y56.733 E5.21703 ; brim
G1 X58.637 Y56.502 E5.21906 ; brim
G1 X59.213 Y56.334 E5.22083 ; brim
G1 X59.983 Y56.162 E5.22315 ; brim
G1 X60.572 Y56.069 E5.22490 ; brim
G1 X61.259 Y56.001 E5.22693 ; brim
G1 X62.047 Y55.976 E5.22924 ; brim
G1 X62.787 Y56.005 E5.23142 F2400.000 ; brim
G1 X63.429 Y56.069 E5.23332 ; brim
G1 X64.019 Y56.163 E5.23507 ; brim
G1 X64.790 Y56.335 E5.23740 ; brim
G1 X65.497 Y56.547 E5.23956 ; brim
G1 X66.103 Y56.768 E5.24146 ; brim
G1 X66.651 Y57.005 E5.24321 ; brim
G1 X67.351 Y57.362 E5.24552 ; brim
G1 X67.986 Y57.745 E5.24770 ; brim
G1 X68.518 Y58.110 E5.24960 ; brim
G1 X68.990 Y58.476 E5.25135 ; brim
G1 X69.581 Y58.997 E5.25367 ; brim
G1 X70.003 Y59.419 E5.25542 ; brim
G1 X70.432 Y59.901 E5.25732 ; brim
G1 X70.890 Y60.482 E5.25949 ; brim
G1 X71.333 Y61.133 E5.26181 ; brim
G1 X71.683 Y61.731 E5.26385 ; brim
G1 X71.954 Y62.264 E5.26560 ; brim
G1 X72.232 Y62.896 E5.26763 ; brim
G1 X72.499 Y63.639 E5.26995 ; brim
G1 X72.665 Y64.212 E5.27170 ; brim
G1 X72.808 Y64.799 E5.27348 ; brim
G1 X72.943 Y65.665 E5.27606 ; brim
G1 X73.005 Y66.355 E5.27809 ; brim
G1 X73.024 Y66.953 E5.27985 ; brim
G1 X73.005 Y67.644 E5.28188 ; brim
G1 X72.931 Y68.429 E5.28420 ; brim
G1 X72.808 Y69.202 E5.28650 ; brim
G1 X72.666 Y69.788 E5.28827 ; brim
G1 X72.498 Y70.364 E5.29003 ; brim
G1 X72.232 Y71.103 E5.29234 ; brim
G1 X71.995 Y71.651 E5.29410 ; brim
G1 X71.683 Y72.270 E5.29613 ; brim
G1 X71.283 Y72.946 E5.29844 ; brim
G1 X70.891 Y73.518 E5.30048 ; brim
G1 X70.525 Y73.990 E5.30223 ; brim
G1 X70.003 Y74.581 E5.30455 ; brim
G1 X69.476 Y75.100 E5.30672 ; brim
G1 X68.990 Y75.525 E5.30862 ; brim
G1 X68.518 Y75.891 E5.31038 ; brim
G1 X67.866 Y76.334 E5.31269 ; brim
G1 X67.352 Y76.637 E5.31445 ; brim
G1 X66.737 Y76.954 E5.31648 ; brim
G1 X66.015 Y77.267 E5.31879 ; brim
G1 X65.361 Y77.499 E5.32083 ; brim
G1 X64.787 Y77.666 E5.32259 ; brim
G1 X64.112 Y77.820 E5.32462 ; brim
G1 X63.335 Y77.943 E5.32694 ; brim
G1 X62.739 Y77.999 E5.32869 ; brim
G1 X62.049 Y78.024 E5.33072 ; brim
G1 X61.355 Y78.005 E5.33276 ; brim
G1 X60.571 Y77.931 E5.33508 ; brim
G1 X59.980 Y77.837 E5.33684 ; brim
G1 X59.304 Y77.689 E5.33887 ; brim
G1 X58.548 Y77.469 E5.34119 ; brim
G1 X57.986 Y77.267 E5.34294 ; brim
G1 X57.349 Y76.995 E5.34497 ; brim
G1 X56.649 Y76.638 E5.34728 ; brim
G1 X56.014 Y76.255 E5.34946 ; brim
G1 X55.481 Y75.890 E5.35136 ; brim
G1 X55.010 Y75.524 E5.35311 ; brim
G1 X54.419 Y75.003 E5.35543 ; brim
G1 X53.997 Y74.581 E5.35719 ; brim
G1 X53.537 Y74.064 E5.35922 ; brim
G1 X53.054 Y73.441 E5.36153 ; brim
G1 X52.667 Y72.867 E5.36357 ; brim
G1 X52.362 Y72.351 E5.36533 ; brim
G1 X52.046 Y71.737 E5.36736 ; brim
G1 X51.768 Y71.103 E5.36940 ; brim
G1 X51.501 Y70.361 E5.37171 ; brim
G1 X51.206 Y69.295 E5.37496 ; brim
G1 X51.069 Y68.431 E5.37753 ; brim
G1 X50.995 Y67.645 E5.37985 ; brim
G1 X50.976 Y67.047 E5.38161 ; brim
G1 X50.995 Y66.354 E5.38365 ; brim
G1 X51.069 Y65.571 E5.38596 ; brim
G1 X51.192 Y64.798 E5.38826 ; brim
G1 X51.334 Y64.213 E5.39003 ; brim
G1 X51.530 Y63.549 E5.39207 ; brim
G1 X51.768 Y62.898 E5.39410 ; brim
G1 X52.005 Y62.349 E5.39586 ; brim
G1 X52.316 Y61.732 E5.39789 ; brim
G1 X52.718 Y61.053 E5.40021 ; brim
G1 X53.109 Y60.482 E5.40224 ; brim
G1 X53.536 Y59.937 E5.40428 ; brim
G1 X53.932 Y59.488 E5.40604 ; brim
G1 X54.449 Y58.968 E5.40819 ; brim
G1 X54.541 Y58.990 F7800.000 ; move to first brim point
G1 X54.988 Y58.596 E5.40994 F2400.000 ; brim
G1 X55.529 Y58.172 E5.41196 ; brim
G1 X56.175 Y57.733 E5.41426 ; brim
G1 X56.687 Y57.431 E5.41601 ; brim
G1 X57.298 Y57.116 E5.41803 ; brim
G1 X58.012 Y56.807 E5.42031 ; brim
G1 X58.660 Y56.577 E5.42233 ; brim
G1 X59.234 Y56.410 E5.42409 ; brim
G1 X59.997 Y56.240 E5.42639 ; brim
G1 X60.583 Y56.147 E5.42813 ; brim
G1 X61.265 Y56.079 E5.43015 ; brim
G1 X62.093 Y56.056 E5.43258 ; brim
G1 X62.731 Y56.079 E5.43446 F2400.000 ; brim
G1 X63.326 Y56.135 E5.43621 ; brim
G1 X64.095 Y56.257 E5.43850 ; brim
G1 X64.770 Y56.411 E5.44053 ; brim
G1 X65.425 Y56.604 E5.44254 ; brim
G1 X65.986 Y56.806 E5.44429 ; brim
G1 X66.619 Y57.077 E5.44632 ; brim
G1 X67.312 Y57.430 E5.44860 ; brim
G1 X67.942 Y57.810 E5.45076 ; brim
G1 X68.471 Y58.173 E5.45265 ; brim
G1 X68.941 Y58.537 E5.45440 ; brim
G1 X69.526 Y59.053 E5.45669 ; brim
G1 X69.947 Y59.474 E5.45844 ; brim
G1 X70.373 Y59.952 E5.46032 ; brim
G1 X70.827 Y60.529 E5.46248 ; brim
G1 X71.266 Y61.174 E5.46477 ; brim
G1 X71.614 Y61.768 E5.46680 ; brim
G1 X71.884 Y62.298 E5.46854 ; brim
G1 X72.159 Y62.926 E5.47056 ; brim
G1 X72.424 Y63.662 E5.47286 ; brim
G1 X72.590 Y64.233 E5.47460 ; brim
G1 X72.732 Y64.817 E5.47637 ; brim
G1 X72.865 Y65.674 E5.47892 ; brim
G1 X72.927 Y66.359 E5.48094 ; brim
G1 X72.945 Y66.955 E5.48269 ; brim
G1 X72.927 Y67.640 E5.48471 ; brim
G1 X72.853 Y68.418 E5.48700 ; brim
G1 X72.732 Y69.184 E5.48928 ; brim
G1 X72.590 Y69.767 E5.49104 ; brim
G1 X72.423 Y70.341 E5.49280 ; brim
G1 X72.159 Y71.072 E5.49509 ; brim
G1 X71.923 Y71.619 E5.49684 ; brim
G1 X71.613 Y72.233 E5.49886 ; brim
G1 X71.217 Y72.903 E5.50115 ; brim
G1 X70.828 Y73.471 E5.50317 ; brim
G1 X70.463 Y73.941 E5.50492 ; brim
G1 X69.947 Y74.526 E5.50721 ; brim
G1 X69.424 Y75.041 E5.50937 ; brim
G1 X68.941 Y75.463 E5.51125 ; brim
G1 X68.471 Y75.828 E5.51300 ; brim
G1 X67.825 Y76.267 E5.51530 ; brim
G1 X67.313 Y76.569 E5.51704 ; brim
G1 X66.702 Y76.884 E5.51906 ; brim
G1 X65.987 Y77.193 E5.52135 ; brim
G1 X65.338 Y77.424 E5.52338 ; brim
G1 X64.766 Y77.590 E5.52513 ; brim
G1 X64.096 Y77.743 E5.52714 ; brim
G1 X63.326 Y77.865 E5.52944 ; brim
G1 X62.733 Y77.921 E5.53119 ; brim
G1 X62.047 Y77.945 E5.53320 ; brim
G1 X61.359 Y77.927 E5.53523 ; brim
G1 X60.582 Y77.853 E5.53752 ; brim
G1 X59.994 Y77.760 E5.53927 ; brim
G1 X59.323 Y77.613 E5.54129 ; brim
G1 X58.573 Y77.395 E5.54358 ; brim
G1 X58.013 Y77.193 E5.54533 ; brim
G1 X57.382 Y76.923 E5.54735 ; brim
G1 X56.688 Y76.570 E5.54964 ; brim
G1 X56.057 Y76.190 E5.55180 ; brim
G1 X55.528 Y75.827 E5.55369 ; brim
G1 X55.059 Y75.463 E5.55543 ; brim
G1 X54.474 Y74.947 E5.55773 ; brim
G1 X54.053 Y74.526 E5.55948 ; brim
G1 X53.596 Y74.013 E5.56149 ; brim
G1 X53.118 Y73.396 E5.56379 ; brim
G1 X52.734 Y72.825 E5.56581 ; brim
G1 X52.430 Y72.312 E5.56756 ; brim
G1 X52.117 Y71.703 E5.56958 ; brim
G1 X51.841 Y71.073 E5.57160 ; brim
G1 X51.576 Y70.338 E5.57389 ; brim
G1 X51.283 Y69.274 E5.57714 ; brim
G1 X51.147 Y68.420 E5.57968 ; brim
G1 X51.073 Y67.641 E5.58198 ; brim
G1 X51.055 Y67.045 E5.58373 ; brim
G1 X51.074 Y66.358 E5.58575 ; brim
G1 X51.147 Y65.582 E5.58804 ; brim
G1 X51.268 Y64.816 E5.59032 ; brim
G1 X51.410 Y64.234 E5.59208 ; brim
G1 X51.605 Y63.574 E5.59410 ; brim
G1 X51.840 Y62.928 E5.59612 ; brim
G1 X52.077 Y62.381 E5.59787 ; brim
G1 X52.386 Y61.769 E5.59989 ; brim
G1 X52.783 Y61.096 E5.60218 ; brim
G1 X53.172 Y60.529 E5.60420 ; brim
G1 X53.537 Y60.059 E5.60596 ; brim
G1 X53.990 Y59.541 E5.60798 ; brim
G1 X54.502 Y59.026 E5.61011 ; brim
G1 X54.593 Y59.048 F7800.000 ; move to first brim point
G1 X55.108 Y58.598 E5.61212 F2400.000 ; brim
G1 X55.577 Y58.235 E5.61386 ; brim
G1 X56.216 Y57.800 E5.61614 ; brim
G1 X56.726 Y57.499 E5.61788 ; brim
G1 X57.332 Y57.187 E5.61988 ; brim
G1 X58.040 Y56.880 E5.62215 ; brim
G1 X58.683 Y56.652 E5.62415 ; brim
G1 X59.254 Y56.486 E5.62590 ; brim
G1 X60.010 Y56.317 E5.62818 ; brim
G1 X60.594 Y56.225 E5.62991 ; brim
G1 X61.271 Y56.158 E5.63191 ; brim
G1 X62.044 Y56.133 E5.63419 ; brim
G1 X62.771 Y56.162 E5.63632 F2400.000 ; brim
G1 X63.407 Y56.225 E5.63820 ; brim
G1 X63.992 Y56.317 E5.63994 ; brim
G1 X64.749 Y56.487 E5.64222 ; brim
G1 X65.443 Y56.694 E5.64435 ; brim
G1 X66.043 Y56.913 E5.64623 ; brim
G1 X66.586 Y57.148 E5.64797 ; brim
G1 X67.273 Y57.498 E5.65023 ; brim
G1 X67.898 Y57.875 E5.65238 ; brim
G1 X68.424 Y58.235 E5.65425 ; brim
G1 X68.892 Y58.599 E5.65599 ; brim
G1 X69.472 Y59.109 E5.65826 ; brim
G1 X69.891 Y59.528 E5.66000 ; brim
G1 X70.314 Y60.005 E5.66188 ; brim
G1 X70.765 Y60.576 E5.66401 ; brim
G1 X71.199 Y61.216 E5.66629 ; brim
G1 X71.545 Y61.805 E5.66829 ; brim
G1 X71.813 Y62.333 E5.67004 ; brim
G1 X72.086 Y62.956 E5.67204 ; brim
G1 X72.349 Y63.685 E5.67431 ; brim
G1 X72.514 Y64.253 E5.67605 ; brim
G1 X72.655 Y64.835 E5.67781 ; brim
G1 X72.787 Y65.683 E5.68033 ; brim
G1 X72.848 Y66.363 E5.68234 ; brim
G1 X72.867 Y66.956 E5.68408 ; brim
G1 X72.848 Y67.637 E5.68608 ; brim
G1 X72.775 Y68.406 E5.68836 ; brim
G1 X72.655 Y69.166 E5.69061 ; brim
G1 X72.514 Y69.746 E5.69237 ; brim
G1 X72.348 Y70.318 E5.69412 ; brim
G1 X72.087 Y71.042 E5.69638 ; brim
G1 X71.851 Y71.587 E5.69813 ; brim
G1 X71.544 Y72.196 E5.70013 ; brim
G1 X71.151 Y72.860 E5.70240 ; brim
G1 X70.765 Y73.424 E5.70441 ; brim
G1 X70.402 Y73.892 E5.70615 ; brim
G1 X69.890 Y74.472 E5.70842 ; brim
G1 X69.407 Y74.952 E5.71042 ; brim
G1 X68.961 Y75.344 E5.71217 ; brim
G1 X68.424 Y75.765 E5.71417 ; brim
G1 X67.784 Y76.200 E5.71645 ; brim
G1 X67.274 Y76.501 E5.71819 ; brim
G1 X66.668 Y76.813 E5.72019 ; brim
G1 X65.959 Y77.120 E5.72246 ; brim
G1 X65.314 Y77.349 E5.72447 ; brim
G1 X64.746 Y77.514 E5.72621 ; brim
G1 X64.080 Y77.666 E5.72822 ; brim
G1 X63.317 Y77.787 E5.73049 ; brim
G1 X62.727 Y77.842 E5.73223 ; brim
G1 X62.046 Y77.867 E5.73423 ; brim
G1 X61.362 Y77.848 E5.73624 ; brim
G1 X60.593 Y77.775 E5.73851 ; brim
G1 X60.007 Y77.683 E5.74026 ; brim
G1 X59.341 Y77.536 E5.74226 ; brim
G1 X58.598 Y77.321 E5.74453 ; brim
G1 X58.041 Y77.120 E5.74627 ; brim
G1 X57.414 Y76.852 E5.74828 ; brim
G1 X56.727 Y76.502 E5.75054 ; brim
G1 X56.102 Y76.125 E5.75269 ; brim
G1 X55.575 Y75.764 E5.75456 ; brim
G1 X55.108 Y75.402 E5.75630 ; brim
G1 X54.528 Y74.891 E5.75857 ; brim
G1 X54.109 Y74.472 E5.76032 ; brim
G1 X53.656 Y73.962 E5.76232 ; brim
G1 X53.182 Y73.351 E5.76459 ; brim
G1 X52.801 Y72.784 E5.76660 ; brim
G1 X52.498 Y72.273 E5.76835 ; brim
G1 X52.187 Y71.668 E5.77034 ; brim
G1 X51.913 Y71.043 E5.77235 ; brim
G1 X51.651 Y70.315 E5.77462 ; brim
G1 X51.359 Y69.254 E5.77786 ; brim
G1 X51.225 Y68.409 E5.78037 ; brim
G1 X51.152 Y67.637 E5.78265 ; brim
G1 X51.133 Y67.044 E5.78439 ; brim
G1 X51.152 Y66.362 E5.78640 ; brim
G1 X51.225 Y65.593 E5.78867 ; brim
G1 X51.345 Y64.835 E5.79093 ; brim
G1 X51.486 Y64.255 E5.79268 ; brim
G1 X51.679 Y63.600 E5.79469 ; brim
G1 X51.913 Y62.958 E5.79669 ; brim
G1 X52.148 Y62.414 E5.79844 ; brim
G1 X52.455 Y61.806 E5.80044 ; brim
G1 X52.849 Y61.140 E5.80271 ; brim
G1 X53.235 Y60.577 E5.80472 ; brim
G1 X53.598 Y60.108 E5.80646 ; brim
G1 X54.048 Y59.593 E5.80847 ; brim
G1 X54.555 Y59.084 E5.81058 ; brim
G1 X54.646 Y59.106 F7800.000 ; move to first brim point
G1 X55.090 Y58.716 E5.81232 F2400.000 ; brim
G1 X55.624 Y58.298 E5.81431 ; brim
G1 X56.257 Y57.867 E5.81656 ; brim
G1 X56.765 Y57.567 E5.81829 ; brim
G1 X57.367 Y57.257 E5.82028 ; brim
G1 X58.068 Y56.954 E5.82253 ; brim
G1 X58.706 Y56.727 E5.82452 ; brim
G1 X59.275 Y56.562 E5.82626 ; brim
G1 X60.024 Y56.394 E5.82852 ; brim
G1 X60.605 Y56.302 E5.83025 ; brim
G1 X61.278 Y56.236 E5.83223 ; brim
G1 X62.088 Y56.213 E5.83461 ; brim
G1 X62.719 Y56.236 E5.83647 F2400.000 ; brim
G1 X63.309 Y56.291 E5.83821 ; brim
G1 X64.064 Y56.411 E5.84046 ; brim
G1 X64.728 Y56.562 E5.84246 ; brim
G1 X65.374 Y56.753 E5.84444 ; brim
G1 X65.931 Y56.953 E5.84618 ; brim
G1 X66.554 Y57.220 E5.84817 ; brim
G1 X67.234 Y57.567 E5.85041 ; brim
G1 X67.854 Y57.940 E5.85254 ; brim
G1 X68.377 Y58.298 E5.85440 ; brim
G1 X68.843 Y58.660 E5.85614 ; brim
G1 X69.417 Y59.166 E5.85838 ; brim
G1 X69.834 Y59.583 E5.86012 ; brim
G1 X70.255 Y60.056 E5.86198 ; brim
