; generated by Slic3r 1.3.1-dev on 2018-09-01 at 16:11:34

; external perimeters extrusion width = 0.38mm (5.47mm^3/s)
; perimeters extrusion width = 0.49mm (7.15mm^3/s)
; infill extrusion width = 0.44mm (6.31mm^3/s)
; solid infill extrusion width = 0.20mm (1.26mm^3/s)
; top infill extrusion width = 0.20mm (1.26mm^3/s)
; support material extrusion width = 0.38mm (5.47mm^3/s)

M107 ; disable fan
M190 S55 ; set bed temperature and wait for it to be reached
M104 S190 ; set temperature
G28 X0 Y0; home XY axes
G1 X100; move X to right side for weight balancing
G28 Z0; home Z axis
; Filament gcode

M109 S190 ; set temperature and wait for it to be reached
G21 ; set units to millimeters
G90 ; use absolute coordinates
M82 ; use absolute distances for extrusion
G92 E0 ; reset extrusion distance
G92 E0 ; reset extrusion distance
G1 E-5.00000 F1800.00000 ; retract extruder 0
G92 E0 ; reset extrusion distance
G1 Z0.100 F7800.000 ; move to next layer (0)
G1 X42.038 Y57.306 F7800.000 ; move to first small perimeter point
G1 E5.00000 F1800.00000 ; unretract extruder 0
M201 X500 Y500 ; adjust acceleration
M204 P500 T500 ; adjust acceleration
G1 F2400
G1 X44.062 Y56.192 E5.00679 ; small perimeter
G1 X68.985 Y46.692 E5.08517 ; small perimeter
G1 X71.961 Y46.144 E5.09407 ; small perimeter
G1 X76.961 Y46.144 E5.10876 ; small perimeter
G1 X79.508 Y46.541 E5.11634 ; small perimeter
G1 X81.813 Y47.696 E5.12391 ; small perimeter
G1 X83.656 Y49.499 E5.13149 ; small perimeter
G1 X84.861 Y51.777 E5.13906 ; small perimeter
G1 X85.318 Y54.500 E5.14718 ; small perimeter
G1 X85.318 Y79.500 E5.22065 ; small perimeter
G1 X84.920 Y82.047 E5.22822 ; small perimeter
G1 X83.765 Y84.351 E5.23580 ; small perimeter
G1 X81.962 Y86.194 E5.24337 ; small perimeter
G1 X79.684 Y87.400 E5.25095 ; small perimeter
G1 X76.961 Y87.856 E5.25906 ; small perimeter
G1 X71.961 Y87.856 E5.27376 ; small perimeter
G1 X68.985 Y87.308 E5.28265 ; small perimeter
G1 X44.062 Y77.808 E5.36103 ; small perimeter
G1 X41.824 Y76.529 E5.36861 ; small perimeter
G1 X40.082 Y74.629 E5.37618 ; small perimeter
G1 X39.002 Y72.289 E5.38376 ; small perimeter
G1 X38.682 Y70.000 E5.39055 ; small perimeter
G1 X38.682 Y64.000 E5.40818 ; small perimeter
G1 X39.080 Y61.453 E5.41576 ; small perimeter
G1 X40.235 Y59.149 E5.42333 ; small perimeter
G1 X42.001 Y57.343 E5.43075 ; small perimeter
G1 X42.114 Y57.347 F7800.000 ; move to first small perimeter point
G1 F2400
G1 X44.090 Y56.265 E5.43738 ; small perimeter
G1 X69.013 Y46.765 E5.51576 ; small perimeter
G1 X71.961 Y46.222 E5.52457 ; small perimeter
G1 X76.961 Y46.222 E5.53926 ; small perimeter
G1 X79.496 Y46.620 E5.54680 ; small perimeter
G1 X81.787 Y47.774 E5.55434 ; small perimeter
G1 X83.615 Y49.575 E5.56188 ; small perimeter
G1 X84.803 Y51.849 E5.56942 ; small perimeter
G1 X85.239 Y54.500 E5.57732 ; small perimeter
G1 X85.239 Y79.500 E5.65079 ; small perimeter
G1 X84.841 Y82.035 E5.65833 ; small perimeter
G1 X83.687 Y84.326 E5.66587 ; small perimeter
G1 X81.886 Y86.153 E5.67341 ; small perimeter
G1 X79.612 Y87.342 E5.68094 ; small perimeter
G1 X76.961 Y87.778 E5.68884 ; small perimeter
G1 X71.961 Y87.778 E5.70353 ; small perimeter
G1 X69.013 Y87.235 E5.71234 ; small perimeter
G1 X44.090 Y77.735 E5.79073 ; small perimeter
G1 X41.864 Y76.461 E5.79827 ; small perimeter
G1 X40.134 Y74.566 E5.80581 ; small perimeter
G1 X39.068 Y72.232 E5.81335 ; small perimeter
G1 X38.761 Y70.000 E5.81997 ; small perimeter
G1 X38.761 Y64.000 E5.83760 ; small perimeter
G1 X39.159 Y61.465 E5.84514 ; small perimeter
G1 X40.313 Y59.174 E5.85268 ; small perimeter
G1 X42.077 Y57.384 E5.86006 ; small perimeter
G1 X42.190 Y57.388 F7800.000 ; move to first small perimeter point
G1 F2400
G1 X44.118 Y56.339 E5.86652 ; small perimeter
G1 X69.041 Y46.839 E5.94490 ; small perimeter
G1 X71.961 Y46.301 E5.95363 ; small perimeter
G1 X76.961 Y46.301 E5.96832 ; small perimeter
G1 X79.483 Y46.698 E5.97582 ; small perimeter
G1 X81.761 Y47.853 E5.98333 ; small perimeter
G1 X83.573 Y49.651 E5.99083 ; small perimeter
G1 X84.744 Y51.920 E5.99833 ; small perimeter
G1 X85.160 Y54.500 E6.00601 ; small perimeter
G1 X85.160 Y79.500 E6.07948 ; small perimeter
G1 X84.763 Y82.022 E6.08699 ; small perimeter
G1 X83.609 Y84.300 E6.09449 ; small perimeter
G1 X81.810 Y86.112 E6.10199 ; small perimeter
G1 X79.541 Y87.283 E6.10950 ; small perimeter
G1 X76.961 Y87.699 E6.11718 ; small perimeter
G1 X71.961 Y87.699 E6.13187 ; small perimeter
G1 X69.041 Y87.161 E6.14060 ; small perimeter
G1 X44.118 Y77.661 E6.21898 ; small perimeter
G1 X41.903 Y76.392 E6.22648 ; small perimeter
G1 X40.186 Y74.502 E6.23399 ; small perimeter
G1 X39.134 Y72.176 E6.24149 ; small perimeter
G1 X38.840 Y70.000 E6.24794 ; small perimeter
G1 X38.840 Y64.000 E6.26557 ; small perimeter
G1 X39.237 Y61.478 E6.27308 ; small perimeter
G1 X40.391 Y59.200 E6.28058 ; small perimeter
G1 X42.153 Y57.425 E6.28793 ; small perimeter
G1 X42.266 Y57.430 F7800.000 ; move to first small perimeter point
G1 F2400
G1 X44.146 Y56.412 E6.29421 ; small perimeter
G1 X69.069 Y46.912 E6.37260 ; small perimeter
G1 X71.961 Y46.379 E6.38124 ; small perimeter
G1 X76.961 Y46.379 E6.39593 ; small perimeter
G1 X79.471 Y46.777 E6.40340 ; small perimeter
G1 X81.735 Y47.931 E6.41087 ; small perimeter
G1 X83.531 Y49.728 E6.41833 ; small perimeter
G1 X84.685 Y51.992 E6.42580 ; small perimeter
G1 X85.082 Y54.500 E6.43326 ; small perimeter
G1 X85.082 Y79.500 E6.50673 ; small perimeter
G1 X84.684 Y82.010 E6.51420 ; small perimeter
G1 X83.531 Y84.274 E6.52167 ; small perimeter
G1 X81.734 Y86.070 E6.52914 ; small perimeter
G1 X79.470 Y87.223 E6.53660 ; small perimeter
G1 X76.961 Y87.621 E6.54407 ; small perimeter
G1 X71.961 Y87.621 E6.55876 ; small perimeter
G1 X69.069 Y87.088 E6.56740 ; small perimeter
G1 X44.146 Y77.588 E6.64579 ; small perimeter
G1 X41.943 Y76.323 E6.65325 ; small perimeter
G1 X40.238 Y74.438 E6.66072 ; small perimeter
G1 X39.200 Y72.119 E6.66819 ; small perimeter
G1 X38.918 Y70.000 E6.67447 ; small perimeter
G1 X38.918 Y64.000 E6.69210 ; small perimeter
G1 X39.316 Y61.490 E6.69957 ; small perimeter
G1 X40.469 Y59.226 E6.70704 ; small perimeter
G1 X42.229 Y57.467 E6.71435 ; small perimeter
G1 X42.342 Y57.472 F7800.000 ; move to first small perimeter point
G1 F2400
G1 X44.174 Y56.485 E6.72047 ; small perimeter
G1 X69.097 Y46.985 E6.79885 ; small perimeter
G1 X71.961 Y46.458 E6.80741 ; small perimeter
G1 X76.961 Y46.458 E6.82210 ; small perimeter
G1 X79.458 Y46.855 E6.82953 ; small perimeter
G1 X81.709 Y48.009 E6.83696 ; small perimeter
G1 X83.490 Y49.804 E6.84439 ; small perimeter
G1 X84.625 Y52.063 E6.85182 ; small perimeter
G1 X85.003 Y54.500 E6.85907 ; small perimeter
G1 X85.003 Y79.500 E6.93254 ; small perimeter
G1 X84.606 Y81.997 E6.93997 ; small perimeter
G1 X83.453 Y84.247 E6.94740 ; small perimeter
G1 X81.658 Y86.028 E6.95483 ; small perimeter
G1 X79.398 Y87.164 E6.96227 ; small perimeter
G1 X76.961 Y87.542 E6.96951 ; small perimeter
G1 X71.961 Y87.542 E6.98421 ; small perimeter
G1 X69.097 Y87.015 E6.99277 ; small perimeter
G1 X44.174 Y77.515 E7.07115 ; small perimeter
G1 X41.983 Y76.254 E7.07858 ; small perimeter
G1 X40.291 Y74.375 E7.08601 ; small perimeter
G1 X39.266 Y72.063 E7.09344 ; small perimeter
G1 X38.997 Y70.000 E7.09956 ; small perimeter
G1 X38.997 Y64.000 E7.11719 ; small perimeter
G1 X39.394 Y61.503 E7.12462 ; small perimeter
G1 X40.547 Y59.253 E7.13205 ; small perimeter
G1 X42.305 Y57.509 E7.13933 ; small perimeter
G1 X42.418 Y57.514 F7800.000 ; move to first small perimeter point
G1 F2400
G1 X44.202 Y56.559 E7.14527 ; small perimeter
G1 X69.125 Y47.059 E7.22366 ; small perimeter
G1 X71.961 Y46.537 E7.23213 ; small perimeter
G1 X76.961 Y46.537 E7.24683 ; small perimeter
G1 X79.446 Y46.934 E7.25422 ; small perimeter
G1 X81.682 Y48.087 E7.26161 ; small perimeter
G1 X83.448 Y49.880 E7.26901 ; small perimeter
G1 X84.565 Y52.134 E7.27640 ; small perimeter
G1 X84.925 Y54.500 E7.28344 ; small perimeter
G1 X84.925 Y79.500 E7.35690 ; small perimeter
G1 X84.527 Y81.985 E7.36430 ; small perimeter
G1 X83.375 Y84.221 E7.37169 ; small perimeter
G1 X81.582 Y85.986 E7.37909 ; small perimeter
G1 X79.327 Y87.104 E7.38648 ; small perimeter
G1 X76.961 Y87.463 E7.39351 ; small perimeter
G1 X71.961 Y87.463 E7.40821 ; small perimeter
G1 X69.125 Y86.941 E7.41668 ; small perimeter
G1 X44.202 Y77.441 E7.49507 ; small perimeter
G1 X42.022 Y76.185 E7.50246 ; small perimeter
G1 X40.343 Y74.311 E7.50986 ; small perimeter
G1 X39.332 Y72.007 E7.51725 ; small perimeter
G1 X39.075 Y70.000 E7.52320 ; small perimeter
G1 X39.075 Y64.000 E7.54083 ; small perimeter
G1 X39.473 Y61.515 E7.54822 ; small perimeter
G1 X40.625 Y59.279 E7.55562 ; small perimeter
G1 X42.381 Y57.551 E7.56286 ; small perimeter
G1 X42.495 Y57.556 F7800.000 ; move to first small perimeter point
G1 F2400
G1 X44.230 Y56.632 E7.56864 ; small perimeter
G1 X69.153 Y47.132 E7.64702 ; small perimeter
G1 X71.961 Y46.615 E7.65541 ; small perimeter
G1 X76.961 Y46.615 E7.67010 ; small perimeter
G1 X79.433 Y47.013 E7.67746 ; small perimeter
G1 X81.656 Y48.165 E7.68482 ; small perimeter
G1 X83.405 Y49.956 E7.69218 ; small perimeter
G1 X84.505 Y52.205 E7.69953 ; small perimeter
G1 X84.846 Y54.500 E7.70635 ; small perimeter
G1 X84.846 Y79.500 E7.77982 ; small perimeter
G1 X84.449 Y81.972 E7.78718 ; small perimeter
G1 X83.296 Y84.194 E7.79454 ; small perimeter
G1 X81.505 Y85.944 E7.80189 ; small perimeter
G1 X79.256 Y87.044 E7.80925 ; small perimeter
G1 X76.961 Y87.385 E7.81607 ; small perimeter
G1 X71.961 Y87.385 E7.83077 ; small perimeter
G1 X69.153 Y86.868 E7.83916 ; small perimeter
G1 X44.230 Y77.368 E7.91754 ; small perimeter
G1 X42.062 Y76.116 E7.92490 ; small perimeter
G1 X40.396 Y74.248 E7.93225 ; small perimeter
G1 X39.399 Y71.951 E7.93961 ; small perimeter
G1 X39.154 Y70.000 E7.94539 ; small perimeter
G1 X39.154 Y64.000 E7.96302 ; small perimeter
G1 X39.551 Y61.528 E7.97038 ; small perimeter
G1 X40.704 Y59.306 E7.97774 ; small perimeter
G1 X42.457 Y57.593 E7.98494 ; small perimeter
G1 X42.571 Y57.599 F7800.000 ; move to first small perimeter point
G1 F2400
G1 X44.258 Y56.706 E7.99055 ; small perimeter
G1 X69.181 Y47.206 E8.06894 ; small perimeter
G1 X71.961 Y46.694 E8.07724 ; small perimeter
G1 X76.961 Y46.694 E8.09194 ; small perimeter
G1 X79.420 Y47.091 E8.09926 ; small perimeter
G1 X81.629 Y48.243 E8.10658 ; small perimeter
G1 X83.363 Y50.032 E8.11390 ; small perimeter
G1 X84.444 Y52.276 E8.12122 ; small perimeter
G1 X84.768 Y54.500 E8.12783 ; small perimeter
G1 X84.768 Y79.500 E8.20130 ; small perimeter
G1 X84.370 Y81.959 E8.20862 ; small perimeter
G1 X83.218 Y84.168 E8.21594 ; small perimeter
G1 X81.429 Y85.901 E8.22326 ; small perimeter
G1 X79.186 Y86.983 E8.23058 ; small perimeter
G1 X76.961 Y87.306 E8.23718 ; small perimeter
G1 X71.961 Y87.306 E8.25188 ; small perimeter
G1 X69.181 Y86.794 E8.26019 ; small perimeter
G1 X44.258 Y77.294 E8.33857 ; small perimeter
G1 X42.102 Y76.047 E8.34589 ; small perimeter
G1 X40.448 Y74.184 E8.35321 ; small perimeter
G1 X39.466 Y71.895 E8.36053 ; small perimeter
G1 X39.232 Y70.000 E8.36614 ; small perimeter
G1 X39.232 Y64.000 E8.38377 ; small perimeter
G1 X39.630 Y61.541 E8.39109 ; small perimeter
G1 X40.782 Y59.332 E8.39841 ; small perimeter
G1 X42.533 Y57.635 E8.40558 ; small perimeter
G1 X42.646 Y57.642 F7800.000 ; move to first small perimeter point
G1 F2400
G1 X44.286 Y56.779 E8.41103 ; small perimeter
G1 X69.209 Y47.279 E8.48941 ; small perimeter
G1 X71.961 Y46.772 E8.49763 ; small perimeter
G1 X76.961 Y46.772 E8.51233 ; small perimeter
G1 X79.408 Y47.170 E8.51961 ; small perimeter
G1 X81.602 Y48.321 E8.52689 ; small perimeter
G1 X83.320 Y50.108 E8.53418 ; small perimeter
G1 X84.383 Y52.346 E8.54146 ; small perimeter
G1 X84.689 Y54.500 E8.54785 ; small perimeter
G1 X84.689 Y79.500 E8.62132 ; small perimeter
G1 X84.292 Y81.946 E8.62861 ; small perimeter
G1 X83.140 Y84.141 E8.63589 ; small perimeter
G1 X81.354 Y85.858 E8.64317 ; small perimeter
G1 X79.115 Y86.922 E8.65046 ; small perimeter
G1 X76.961 Y87.228 E8.65685 ; small perimeter
G1 X71.961 Y87.228 E8.67154 ; small perimeter
G1 X69.209 Y86.721 E8.67977 ; small perimeter
G1 X44.286 Y77.221 E8.75815 ; small perimeter
G1 X42.142 Y75.978 E8.76543 ; small perimeter
G1 X40.501 Y74.121 E8.77272 ; small perimeter
G1 X39.533 Y71.839 E8.78000 ; small perimeter
G1 X39.311 Y70.000 E8.78544 ; small perimeter
G1 X39.311 Y64.000 E8.80308 ; small perimeter
G1 X39.708 Y61.554 E8.81036 ; small perimeter
G1 X40.860 Y59.359 E8.81764 ; small perimeter
G1 X42.609 Y57.678 E8.82477 ; small perimeter
G1 X42.722 Y57.685 F7800.000 ; move to first small perimeter point
G1 F2400
G1 X44.314 Y56.852 E8.83005 ; small perimeter
G1 X69.237 Y47.352 E8.90843 ; small perimeter
G1 X71.961 Y46.851 E8.91658 ; small perimeter
G1 X76.961 Y46.851 E8.93127 ; small perimeter
G1 X79.395 Y47.248 E8.93852 ; small perimeter
G1 X81.575 Y48.399 E8.94576 ; small perimeter
G1 X83.277 Y50.184 E8.95301 ; small perimeter
G1 X84.322 Y52.417 E8.96025 ; small perimeter
G1 X84.611 Y54.500 E8.96643 ; small perimeter
G1 X84.611 Y79.500 E9.03990 ; small perimeter
G1 X84.213 Y81.933 E9.04715 ; small perimeter
G1 X83.062 Y84.114 E9.05440 ; small perimeter
G1 X81.278 Y85.815 E9.06164 ; small perimeter
G1 X79.044 Y86.860 E9.06889 ; small perimeter
G1 X76.961 Y87.149 E9.07507 ; small perimeter
G1 X71.961 Y87.149 E9.08976 ; small perimeter
G1 X69.237 Y86.648 E9.09790 ; small perimeter
G1 X44.314 Y77.148 E9.17629 ; small perimeter
G1 X42.182 Y75.910 E9.18353 ; small perimeter
G1 X40.554 Y74.058 E9.19078 ; small perimeter
G1 X39.600 Y71.784 E9.19802 ; small perimeter
G1 X39.389 Y70.000 E9.20330 ; small perimeter
G1 X39.389 Y64.000 E9.22094 ; small perimeter
G1 X39.787 Y61.567 E9.22818 ; small perimeter
G1 X40.938 Y59.386 E9.23543 ; small perimeter
G1 X42.684 Y57.721 E9.24252 ; small perimeter
G1 X42.798 Y57.728 F7800.000 ; move to first small perimeter point
G1 F2400
G1 X44.342 Y56.926 E9.24763 ; small perimeter
G1 X69.265 Y47.426 E9.32602 ; small perimeter
G1 X71.961 Y46.929 E9.33407 ; small perimeter
G1 X76.961 Y46.929 E9.34877 ; small perimeter
G1 X79.382 Y47.327 E9.35598 ; small perimeter
G1 X81.548 Y48.477 E9.36318 ; small perimeter
G1 X83.233 Y50.260 E9.37039 ; small perimeter
G1 X84.260 Y52.487 E9.37760 ; small perimeter
G1 X84.532 Y54.500 E9.38357 ; small perimeter
G1 X84.532 Y79.500 E9.45704 ; small perimeter
G1 X84.135 Y81.920 E9.46425 ; small perimeter
G1 X82.984 Y84.087 E9.47146 ; small perimeter
G1 X81.202 Y85.772 E9.47866 ; small perimeter
G1 X78.974 Y86.798 E9.48587 ; small perimeter
G1 X76.961 Y87.071 E9.49184 ; small perimeter
G1 X71.961 Y87.071 E9.50654 ; small perimeter
G1 X69.265 Y86.574 E9.51459 ; small perimeter
G1 X44.342 Y77.074 E9.59298 ; small perimeter
G1 X42.222 Y75.841 E9.60018 ; small perimeter
G1 X40.607 Y73.994 E9.60739 ; small perimeter
G1 X39.668 Y71.728 E9.61460 ; small perimeter
G1 X39.468 Y70.000 E9.61972 ; small perimeter
G1 X39.468 Y64.000 E9.63735 ; small perimeter
G1 X39.865 Y61.580 E9.64456 ; small perimeter
G1 X41.016 Y59.413 E9.65176 ; small perimeter
G1 X42.760 Y57.764 E9.65882 ; small perimeter
G1 X42.874 Y57.772 F7800.000 ; move to first small perimeter point
G1 F2400
G1 X44.370 Y56.999 E9.66377 ; small perimeter
G1 X69.293 Y47.499 E9.74215 ; small perimeter
G1 X71.961 Y47.008 E9.75012 ; small perimeter
G1 X76.961 Y47.008 E9.76482 ; small perimeter
G1 X79.369 Y47.405 E9.77199 ; small perimeter
G1 X81.521 Y48.555 E9.77916 ; small perimeter
G1 X83.189 Y50.335 E9.78633 ; small perimeter
G1 X84.197 Y52.557 E9.79350 ; small perimeter
G1 X84.454 Y54.500 E9.79926 ; small perimeter
G1 X84.454 Y79.500 E9.87273 ; small perimeter
G1 X84.056 Y81.907 E9.87990 ; small perimeter
G1 X82.906 Y84.060 E9.88707 ; small perimeter
G1 X81.126 Y85.728 E9.89424 ; small perimeter
G1 X78.904 Y86.736 E9.90141 ; small perimeter
G1 X76.961 Y86.992 E9.90717 ; small perimeter
G1 X71.961 Y86.992 E9.92186 ; small perimeter
G1 X69.293 Y86.501 E9.92984 ; small perimeter
G1 X44.370 Y77.001 E10.00822 ; small perimeter
